scalable/apps/1password.svg

<svg width="128" height="128" viewBox="0 0 128 128" fill="none" xmlns="http://www.w3.org/2000/svg">
<path d="M64 5C49.4131 5 35.4236 10.7946 25.1091 21.1091C14.7946 31.4236 9 45.4131 9 60V68C9 82.5869 14.7946 96.5764 25.1091 106.891C35.4236 117.205 49.4131 123 64 123C78.5869 123 92.5764 117.205 102.891 106.891C113.205 96.5764 119 82.5869 119 68V60C119 45.4131 113.205 31.4236 102.891 21.1091C92.5764 10.7946 78.5869 5 64 5Z" fill="url(#paint0_linear_13_28)"/>
<path d="M64 115C94.3757 115 119 90.3757 119 60C119 29.6243 94.3757 5 64 5C33.6243 5 9 29.6243 9 60C9 90.3757 33.6243 115 64 115Z" fill="url(#paint1_linear_13_28)"/>
<path d="M64 112.614C93.0581 112.614 116.614 89.0581 116.614 60C116.614 30.942 93.0581 7.38574 64 7.38574C34.942 7.38574 11.3857 30.942 11.3857 60C11.3857 89.0581 34.942 112.614 64 112.614Z" fill="url(#paint2_linear_13_28)"/>
<path d="M64 23.8105C58.7222 23.8105 53.4961 24.8499 48.62 26.8696C43.744 28.8893 39.3135 31.8496 35.5816 35.5816C31.8496 39.3135 28.8893 43.744 26.8696 48.62C24.8499 53.4961 23.8105 58.7222 23.8105 64C23.8105 69.2778 24.8499 74.5039 26.8696 79.38C28.8893 84.256 31.8496 88.6865 35.5816 92.4184C39.3135 96.1504 43.744 99.1107 48.6201 101.13C53.4961 103.15 58.7222 104.19 64 104.189C69.2778 104.19 74.5039 103.15 79.38 101.13C84.256 99.1107 88.6865 96.1504 92.4184 92.4184C96.1504 88.6865 99.1107 84.256 101.13 79.38C103.15 74.5039 104.19 69.2778 104.189 64C104.19 58.7222 103.15 53.4961 101.13 48.6201C99.1107 43.744 96.1504 39.3135 92.4184 35.5816C88.6865 31.8496 84.256 28.8893 79.38 26.8696C74.5039 24.8499 69.2778 23.8105 64 23.8105ZM53.3223 44.2422C54.7294 43.9942 56.1788 44.2501 57.416 44.9648L84.7578 60.75C85.6814 61.2833 86.4483 62.0503 86.9816 62.9739C87.5148 63.8975 87.7955 64.9452 87.7955 66.0117C87.7955 67.0782 87.5148 68.1259 86.9816 69.0495C86.4483 69.9732 85.6814 70.7402 84.7578 71.2734L57.416 87.0586C56.4924 87.5917 55.4447 87.8724 54.3783 87.8723C53.3118 87.8723 52.2642 87.5915 51.3406 87.0583C50.417 86.525 49.6501 85.7581 49.1168 84.8345C48.5836 83.911 48.3028 82.8633 48.3027 81.7969V50.2266C48.3025 48.7982 48.8055 47.4153 49.7235 46.3209C50.6414 45.2265 51.9156 44.4905 53.3223 44.2422Z" fill="#1A58A8" fill-opacity="0.972549"/>
<g clip-path="url(#clip0_13_28)">
<path d="M64.19 100.38C86.3863 100.38 104.38 82.3864 104.38 60.1901C104.38 37.9937 86.3863 20.0001 64.19 20.0001C41.9937 20.0001 24 37.9937 24 60.1901C24 82.3864 41.9937 100.38 64.19 100.38Z" fill="white"/>
<path d="M64.1899 21.3859C43.454 21.3859 26.5204 37.6438 25.4377 58.1112C25.4464 79.9212 42.7957 97.6083 64.1899 97.6083C85.5842 97.6083 102.933 79.9212 102.942 58.1112C101.859 37.6438 84.9259 21.3859 64.1899 21.3859Z" fill="white"/>
<path d="M64.1899 98.9941C42.735 98.9941 25.3857 81.6449 25.3857 60.19C25.3857 59.4711 25.3857 58.8041 25.4377 58.1372C26.4944 78.596 43.4539 94.8366 64.1899 94.8366C84.7526 94.8366 101.608 78.8125 102.942 58.5789V58.1372C102.994 58.8041 102.994 59.4711 102.994 60.19C102.994 81.6449 85.6447 98.9941 64.1899 98.9941ZM64.1899 25.5435C45.4374 25.5435 30.2363 40.7446 30.2363 59.4971C30.2363 69.9777 34.9828 79.3409 42.4405 85.5686C39.2411 82.5901 36.6905 78.9836 34.9483 74.9745C33.206 70.9654 32.3096 66.6401 32.3151 62.2688C32.3151 44.6684 46.5894 30.394 64.1899 30.394C81.7903 30.394 96.0647 44.6684 96.0647 62.2688C96.0701 66.6401 95.1737 70.9654 93.4315 74.9745C91.6892 78.9836 89.1387 82.5901 85.9392 85.5686C93.3969 79.3409 98.1435 69.9777 98.1435 59.4971C98.1435 40.7446 82.9423 25.5435 64.1899 25.5435Z" fill="#F2F2F2"/>
<path d="M64.1899 90.679C81.0285 90.679 94.6788 77.0286 94.6788 60.19C94.6788 43.3514 81.0285 29.701 64.1899 29.701C47.3513 29.701 33.7009 43.3514 33.7009 60.19C33.7009 77.0286 47.3513 90.679 64.1899 90.679Z" fill="#1369BF"/>
<path d="M64.19 89.2931C80.2632 89.2931 93.2931 76.2632 93.2931 60.19C93.2931 44.1168 80.2632 31.0869 64.19 31.0869C48.1168 31.0869 35.0869 44.1168 35.0869 60.19C35.0869 76.2632 48.1168 89.2931 64.19 89.2931Z" fill="#198CFF"/>
<path d="M64.1901 84.4426C77.5844 84.4426 88.4427 73.5844 88.4427 60.19C88.4427 46.7957 77.5844 35.9374 64.1901 35.9374C50.7958 35.9374 39.9375 46.7957 39.9375 60.19C39.9375 73.5844 50.7958 84.4426 64.1901 84.4426Z" fill="#1369BF"/>
<path d="M64.19 83.0567C76.8189 83.0567 87.0567 72.819 87.0567 60.19C87.0567 47.5611 76.8189 37.3233 64.19 37.3233C51.561 37.3233 41.3232 47.5611 41.3232 60.19C41.3232 72.819 51.561 83.0567 64.19 83.0567Z" fill="#F2F2F2"/>
<path d="M64.19 71.9698C70.6958 71.9698 75.9698 66.6958 75.9698 60.19C75.9698 53.6842 70.6958 48.4102 64.19 48.4102C57.6842 48.4102 52.4102 53.6842 52.4102 60.19C52.4102 66.6958 57.6842 71.9698 64.19 71.9698Z" fill="white"/>
<path d="M64.1901 70.584C69.9305 70.584 74.5841 65.9304 74.5841 60.19C74.5841 54.4496 69.9305 49.796 64.1901 49.796C58.4497 49.796 53.7961 54.4496 53.7961 60.19C53.7961 65.9304 58.4497 70.584 64.1901 70.584Z" fill="#BFBFBF"/>
<path d="M64.19 69.1981C69.165 69.1981 73.1981 65.165 73.1981 60.19C73.1981 55.2149 69.165 51.1819 64.19 51.1819C59.2149 51.1819 55.1819 55.2149 55.1819 60.19C55.1819 65.165 59.2149 69.1981 64.19 69.1981Z" fill="#E5E5E5"/>
<path d="M60.3789 78.2062C59.5526 78.2039 58.7608 77.8746 58.1766 77.2904C57.5923 76.7061 57.263 75.9143 57.2607 75.088V59.4364C57.2612 58.7022 57.5186 57.9912 57.9883 57.4269L58.9065 56.3442C58.957 56.28 58.9845 56.2007 58.9845 56.119C58.9845 56.0373 58.957 55.958 58.9065 55.8938L57.9883 54.8111C57.5186 54.2468 57.2612 53.5358 57.2607 52.8016V45.292C57.263 44.4657 57.5923 43.6739 58.1766 43.0896C58.7608 42.5053 59.5526 42.1761 60.3789 42.1738H68.0012C68.8275 42.1761 69.6193 42.5053 70.2035 43.0896C70.7878 43.6739 71.1171 44.4657 71.1194 45.292V60.9435C71.1189 61.6778 70.8615 62.3887 70.3918 62.953L69.4737 64.0357C69.4231 64.0999 69.3956 64.1792 69.3956 64.2609C69.3956 64.3426 69.4231 64.422 69.4737 64.4861L70.3918 65.5688C70.8615 66.1332 71.1189 66.8441 71.1194 67.5783V75.088C71.1171 75.9143 70.7878 76.7061 70.2035 77.2904C69.6193 77.8746 68.8275 78.2039 68.0012 78.2062H60.3789Z" fill="white"/>
<path d="M60.3788 43.5596H68.0011C68.4598 43.5619 68.8991 43.7452 69.2235 44.0695C69.5479 44.3939 69.7311 44.8332 69.7334 45.292V60.9435C69.7316 61.352 69.5876 61.747 69.3263 62.0609L68.4168 63.1436C68.153 63.4561 68.0083 63.8519 68.0083 64.2609C68.0083 64.6699 68.153 65.0657 68.4168 65.3783L69.3263 66.461C69.5876 66.7749 69.7316 67.1699 69.7334 67.5783V75.088C69.7311 75.5467 69.5479 75.986 69.2235 76.3104C68.8991 76.6348 68.4598 76.818 68.0011 76.8203H60.3788C59.9201 76.818 59.4808 76.6348 59.1564 76.3104C58.832 75.986 58.6488 75.5467 58.6465 75.088V59.4364C58.6483 59.028 58.7922 58.6329 59.0536 58.3191L59.9631 57.2364C60.2269 56.9238 60.3716 56.528 60.3716 56.119C60.3716 55.71 60.2269 55.3142 59.9631 55.0017L59.0536 53.9189C58.7922 53.6051 58.6483 53.21 58.6465 52.8016V45.292C58.6488 44.8332 58.832 44.3939 59.1564 44.0695C59.4808 43.7452 59.9201 43.5619 60.3788 43.5596Z" fill="#061A2E"/>
<path d="M60.3788 75.4345C60.2869 75.4345 60.1988 75.398 60.1338 75.333C60.0689 75.268 60.0324 75.1799 60.0324 75.088V59.4364C60.0301 59.3544 60.0578 59.2743 60.1103 59.2112L61.0284 58.1198C61.4978 57.5588 61.755 56.8505 61.755 56.119C61.755 55.3875 61.4978 54.6792 61.0284 54.1182L60.1103 53.0268C60.0578 52.9637 60.0301 52.8836 60.0324 52.8016V45.292C60.0324 45.2001 60.0689 45.1119 60.1338 45.047C60.1988 44.982 60.2869 44.9455 60.3788 44.9455H68.0011C68.0929 44.9455 68.1811 44.982 68.246 45.047C68.311 45.1119 68.3475 45.2001 68.3475 45.292V60.9435C68.3498 61.0256 68.322 61.1056 68.2696 61.1687L67.3514 62.2601C66.882 62.8212 66.6248 63.5294 66.6248 64.2609C66.6248 64.9925 66.882 65.7007 67.3514 66.2618L68.2696 67.3532C68.322 67.4163 68.3498 67.4963 68.3475 67.5784V75.088C68.3475 75.1799 68.311 75.268 68.246 75.333C68.1811 75.398 68.0929 75.4345 68.0011 75.4345H60.3788Z" fill="#0A2B4C"/>
</g>
<defs>
<linearGradient id="paint0_linear_13_28" x1="9" y1="64" x2="119" y2="64" gradientUnits="userSpaceOnUse">
<stop stop-color="#1A59A7" stop-opacity="0.972549"/>
<stop offset="0.301459" stop-color="#1A59A7" stop-opacity="0.972549"/>
<stop offset="0.502431" stop-color="#3B87E2" stop-opacity="0.964706"/>
<stop offset="0.751216" stop-color="#1A59A7" stop-opacity="0.972549"/>
<stop offset="1" stop-color="#1A59A7" stop-opacity="0.972549"/>
</linearGradient>
<linearGradient id="paint1_linear_13_28" x1="25.3464" y1="22.6743" x2="101.579" y2="98.9073" gradientUnits="userSpaceOnUse">
<stop stop-color="#68A8F5"/>
<stop offset="1" stop-color="#70D2F4"/>
</linearGradient>
<linearGradient id="paint2_linear_13_28" x1="27.0231" y1="24.2934" x2="99.9493" y2="97.2197" gradientUnits="userSpaceOnUse">
<stop stop-color="#4B8BCB"/>
<stop offset="1" stop-color="#198CFF"/>
</linearGradient>
<clipPath id="clip0_13_28">
<rect width="80.38" height="80.38" fill="white" transform="translate(24 20)"/>
</clipPath>
</defs>
</svg>

<svg xmlns="http://www.w3.org/2000/svg" width="128" height="128" fill="none" viewBox="0 0 128 128">
    <path fill="url(#a)" d="M64 5A55 55 0 0 0 9 60v8a55 55 0 0 0 110 0v-8A55 55 0 0 0 64 5"/>
    <path fill="url(#b)" d="M64 115c30.376 0 55-24.624 55-55S94.376 5 64 5 9 29.624 9 60s24.624 55 55 55"/>
    <path fill="url(#c)" d="M64 112.614c29.058 0 52.614-23.556 52.614-52.614S93.058 7.386 64 7.386 11.386 30.942 11.386 60 34.942 112.614 64 112.614"/>
    <path fill="#1a58a8" fill-opacity=".973" d="M64 23.81a40.19 40.19 0 1 0 0 80.379 40.19 40.19 0 0 0 0-80.378M53.322 44.243a6.08 6.08 0 0 1 4.094.723L84.758 60.75a6.077 6.077 0 0 1 0 10.523L57.416 87.06a6.077 6.077 0 0 1-9.113-5.262v-31.57a6.076 6.076 0 0 1 5.02-5.985"/>
    <mask id="d" width="81" height="81" x="24" y="20" maskUnits="userSpaceOnUse" style="mask-type:luminance">
        <path fill="#fff" d="M24 20h80.38v80.38H24z"/>
    </mask>
    <g mask="url(#d)">
        <path fill="#fff" d="M64.19 100.38c22.196 0 40.19-17.994 40.19-40.19S86.386 20 64.19 20 24 37.994 24 60.19s17.994 40.19 40.19 40.19"/>
        <path fill="#fff" d="M64.19 21.386c-20.735 0-37.67 16.258-38.751 36.725.008 21.81 17.356 39.497 38.752 39.497 21.394 0 38.742-17.687 38.751-39.497-1.083-20.467-18.015-36.725-38.751-36.725"/>
        <path fill="#f2f2f2" d="M64.19 98.994c-21.455 0-38.804-17.35-38.804-38.804 0-.719 0-1.386.052-2.053 1.056 20.459 18.016 36.7 38.752 36.7 20.563 0 37.418-16.025 38.752-36.258v-.442c.052.667.052 1.334.052 2.053 0 21.455-17.35 38.804-38.804 38.804m0-73.45c-18.753 0-33.954 15.2-33.954 33.953 0 10.48 4.747 19.844 12.205 26.072a31.78 31.78 0 0 1-10.126-23.3c0-17.6 14.274-31.875 31.875-31.875s31.875 14.274 31.875 31.875a31.78 31.78 0 0 1-10.126 23.3c7.458-6.228 12.205-15.591 12.205-26.072 0-18.752-15.202-33.953-33.954-33.953"/>
        <path fill="#1369bf" d="M64.19 90.68c16.84 0 30.49-13.651 30.49-30.49S81.028 29.701 64.19 29.701s-30.489 13.65-30.489 30.49c0 16.838 13.65 30.488 30.49 30.488"/>
        <path fill="#198cff" d="M64.19 89.293c16.073 0 29.103-13.03 29.103-29.103S80.263 31.087 64.19 31.087 35.087 44.117 35.087 60.19s13.03 29.103 29.103 29.103"/>
        <path fill="#1369bf" d="M64.19 84.443c13.395 0 24.254-10.859 24.254-24.253S77.584 35.938 64.19 35.938c-13.393 0-24.251 10.858-24.251 24.252S50.796 84.443 64.19 84.443"/>
        <path fill="#f2f2f2" d="M64.19 83.057c12.63 0 22.867-10.238 22.867-22.867S76.82 37.323 64.19 37.323 41.323 47.561 41.323 60.19 51.561 83.057 64.19 83.057"/>
        <path fill="#fff" d="M64.19 71.97c6.506 0 11.78-5.274 11.78-11.78s-5.274-11.78-11.78-11.78-11.78 5.274-11.78 11.78 5.274 11.78 11.78 11.78"/>
        <path fill="#bfbfbf" d="M64.19 70.584c5.74 0 10.394-4.654 10.394-10.394S69.93 49.796 64.19 49.796 53.796 54.449 53.796 60.19c0 5.74 4.653 10.394 10.394 10.394"/>
        <path fill="#e5e5e5" d="M64.19 69.198a9.008 9.008 0 1 0 0-18.016 9.008 9.008 0 0 0 0 18.016"/>
        <path fill="#fff" d="M60.379 78.206a3.126 3.126 0 0 1-3.118-3.118V59.437c0-.735.258-1.446.727-2.01l.919-1.083a.364.364 0 0 0 0-.45l-.92-1.083a3.15 3.15 0 0 1-.726-2.01v-7.509a3.127 3.127 0 0 1 3.118-3.118h7.62a3.127 3.127 0 0 1 3.119 3.118v15.652c0 .734-.257 1.445-.727 2.01l-.918 1.082a.364.364 0 0 0 0 .45l.918 1.083c.47.564.727 1.275.727 2.01v7.509A3.127 3.127 0 0 1 68 78.206z"/>
        <path fill="#061a2e" d="M60.38 43.56H68a1.74 1.74 0 0 1 1.732 1.732v15.651a1.76 1.76 0 0 1-.407 1.118l-.91 1.083a1.73 1.73 0 0 0 0 2.234l.91 1.083c.262.314.406.709.407 1.117v7.51A1.74 1.74 0 0 1 68 76.82h-7.62a1.74 1.74 0 0 1-1.732-1.732V59.436a1.75 1.75 0 0 1 .407-1.117l.91-1.083a1.73 1.73 0 0 0 0-2.234l-.91-1.083a1.76 1.76 0 0 1-.407-1.117v-7.51a1.74 1.74 0 0 1 1.731-1.732"/>
        <path fill="#0a2b4c" d="M60.38 75.434a.347.347 0 0 1-.348-.346V59.436a.34.34 0 0 1 .078-.225l.918-1.091a3.12 3.12 0 0 0 0-4.002l-.918-1.091a.34.34 0 0 1-.078-.226v-7.51a.347.347 0 0 1 .347-.346H68a.347.347 0 0 1 .346.347v15.651a.34.34 0 0 1-.077.226l-.919 1.09a3.12 3.12 0 0 0 0 4.003l.92 1.091a.34.34 0 0 1 .077.225v7.51a.345.345 0 0 1-.347.346z"/>
    </g>
    <defs>
        <linearGradient id="a" x1="9" x2="119" y1="64" y2="64" gradientUnits="userSpaceOnUse">
            <stop stop-color="#1a59a7" stop-opacity=".973"/>
            <stop offset=".301" stop-color="#1a59a7" stop-opacity=".973"/>
            <stop offset=".502" stop-color="#3b87e2" stop-opacity=".965"/>
            <stop offset=".751" stop-color="#1a59a7" stop-opacity=".973"/>
            <stop offset="1" stop-color="#1a59a7" stop-opacity=".973"/>
        </linearGradient>
        <linearGradient id="b" x1="25.346" x2="101.579" y1="22.674" y2="98.907" gradientUnits="userSpaceOnUse">
            <stop stop-color="#68a8f5"/>
            <stop offset="1" stop-color="#70d2f4"/>
        </linearGradient>
        <linearGradient id="c" x1="27.023" x2="99.949" y1="24.293" y2="97.22" gradientUnits="userSpaceOnUse">
            <stop stop-color="#4b8bcb"/>
            <stop offset="1" stop-color="#198cff"/>
        </linearGradient>
    </defs>
</svg>
